X:1
T:Title
%%score ( 1 2 ) ( 3 4 )
L:1/8
M:3/4
K:G
V:1 treble nm="Choir Aahs, Staff"
V:2 treble 
V:3 bass nm="Choir Aahs, Staff-1"
V:4 bass 
V:1
 G-[=FG] G4 | [Gc]2 B3 c | [Gd]2 c2 _B2 | [=F^G]2 [D=G]4- | [DG]2 C2 ^D2 | =F2 D3- [D-A] | %6
w: By~German~Traditional,~16th~Cent. * *||||||
 [DB]2 [=Fc]2 [Dc]2 | [GB]2 [^Dc]4- | [Dc]2 [G^d]2 [_B=d]2 | [^Gc]2 [=G_B]4 | [DG]2 [=F^G]4 | %11
w: |||||
 [D=F]2 ^D4- | D2 [G_B]2 B2 | [Ac]2 [Gd]3 [Fc] | [G_B]2 [DA]2 [DG]2 | [A,F]2 [DG]4 |] %16
w: |||||
V:2
 .^D2 z2 z2 | z2 G4 | z2 G4 | x6 | x6 | z2 G4 | x6 | x6 | x6 | x6 | x6 | x6 | x6 | x6 | x6 | x6 |] %16
V:3
 CD [C^D]4 | [C^D]2 =D3 C | [G,B,]2 [^D,C]4 | [=F,C]2 [G,B,]4- | [G,B,]2 C2 [_B,C]2 | %5
 [A,C]2 B,3 A, | G,2 [=F,A,]2 G,2 | [G,D]2 [C,C]4- | [C,C]2[K:treble] C2 [G,G]2 | %9
 [^G,^D]2 [^D,D]4 | [G,_B,]2 [=F,C]4 | [_B,,_B,]2 [^D,G,]4- | [D,G,]2[K:treble] ^D2 [=D=F]2 | %13
 [C^D]2 [_B,=D]3 A, | [G,D]2 [F,A,]2 [E,D]2 | [D,D]2 [G,,B,]4 |] %16
V:4
 C,2 z2 z2 | z2 G,4 | x6 | x6 | x6 | z2 G,4 | x6 | x6 | x2[K:treble] x4 | x6 | x6 | x6 | %12
 x2[K:treble] x4 | x6 | x6 | x6 |] %16

